src/pos-icons/swap-horizontal-bold.svg

<svg height="24" viewBox="0 0 24 24" width="24" xmlns="http://www.w3.org/2000/svg"><path d="m8 10v3h6v5h-6v3l-6-5.5zm14-1.5-6-5.5v3h-6v5h6v3z"/></svg>

<?xml version="1.0" encoding="UTF-8"?><!DOCTYPE svg PUBLIC "-//W3C//DTD SVG 1.1//EN" "http://www.w3.org/Graphics/SVG/1.1/DTD/svg11.dtd"><svg xmlns="http://www.w3.org/2000/svg" xmlns:xlink="http://www.w3.org/1999/xlink" version="1.1" id="mdi-swap-horizontal-bold" width="24" height="24" viewBox="0 0 24 24"><path d="M8,10V13H14V18H8V21L2,15.5L8,10M22,8.5L16,3V6H10V11H16V14L22,8.5Z" /></svg>
